Sources/FrostedUI/Resources/Icons.xcassets/globe24.imageset/globe-24.svg

<svg width="24" height="24" viewBox="0 0 24 24" fill="none" xmlns="http://www.w3.org/2000/svg" data-fui-icon="true">
  <path
    d="M12 1C18.0751 1 23 5.92487 23 12C23 18.0751 18.0751 23 12 23C5.92487 23 1 18.0751 1 12C1 5.92487 5.92487 1 12 1ZM8.84863 16C9.0538 17.1212 9.34041 18.1238 9.6875 18.9609C10.0496 19.8342 10.4616 20.4922 10.8809 20.9199C11.2977 21.3451 11.6758 21.5 12 21.5C12.3242 21.5 12.7023 21.3451 13.1191 20.9199C13.5384 20.4922 13.9504 19.8342 14.3125 18.9609C14.6596 18.1238 14.9462 17.1212 15.1514 16H8.84863ZM3.38281 16C4.48994 18.381 6.55353 20.2256 9.08105 21.041C8.7916 20.5936 8.53045 20.0867 8.30176 19.5352C7.88145 18.5215 7.54912 17.3221 7.3252 16H3.38281ZM16.6748 16C16.4509 17.3221 16.1186 18.5215 15.6982 19.5352C15.4695 20.0869 15.2075 20.5935 14.918 21.041C17.4459 20.2257 19.5099 18.3813 20.6172 16H16.6748ZM16.876 9.5C16.9569 10.3045 17 11.1418 17 12C17 12.8582 16.9569 13.6955 16.876 14.5H21.165C21.3819 13.7032 21.5 12.8655 21.5 12C21.5 11.1345 21.3819 10.2968 21.165 9.5H16.876ZM8.63184 9.5C8.54634 10.2954 8.5 11.133 8.5 12C8.5 12.867 8.54634 13.7046 8.63184 14.5H15.3682C15.4537 13.7046 15.5 12.867 15.5 12C15.5 11.133 15.4537 10.2954 15.3682 9.5H8.63184ZM2.83496 9.5C2.61813 10.2968 2.5 11.1345 2.5 12C2.5 12.8655 2.61813 13.7032 2.83496 14.5H7.12402C7.04313 13.6955 7 12.8582 7 12C7 11.1418 7.04313 10.3045 7.12402 9.5H2.83496ZM9.08105 2.95801C6.5534 3.77337 4.48998 5.61886 3.38281 8H7.3252C7.54912 6.67794 7.88145 5.47855 8.30176 4.46484C8.53057 3.913 8.79142 3.40557 9.08105 2.95801ZM12 2.5C11.6758 2.5 11.2977 2.65485 10.8809 3.08008C10.4616 3.50781 10.0496 4.16576 9.6875 5.03906C9.34041 5.87616 9.0538 6.87881 8.84863 8H15.1514C14.9462 6.87881 14.6596 5.87616 14.3125 5.03906C13.9504 4.16576 13.5384 3.50781 13.1191 3.08008C12.7023 2.65485 12.3242 2.5 12 2.5ZM14.918 2.95801C15.2077 3.40568 15.4694 3.91282 15.6982 4.46484C16.1186 5.47855 16.4509 6.67794 16.6748 8H20.6172C19.5099 5.61859 17.446 3.77323 14.918 2.95801Z"
    fill="currentColor"
  />
</svg>

<svg xmlns="http://www.w3.org/2000/svg" width="24" height="24" fill="none" data-fui-icon="true" viewBox="0 0 24 24"><path fill="currentColor" d="M12 1c6.075 0 11 4.925 11 11s-4.925 11-11 11S1 18.075 1 12 5.925 1 12 1M8.849 16c.205 1.121.491 2.124.838 2.96.363.874.775 1.532 1.194 1.96.417.425.795.58 1.119.58s.702-.155 1.12-.58c.418-.428.83-1.086 1.193-1.96.347-.836.633-1.839.838-2.96zm-5.466 0a9.52 9.52 0 0 0 5.698 5.041 9.4 9.4 0 0 1-.78-1.506c-.42-1.014-.752-2.213-.976-3.535zm13.292 0c-.224 1.322-.556 2.521-.977 3.535a9.4 9.4 0 0 1-.78 1.506 9.52 9.52 0 0 0 5.7-5.041zm.201-6.5a25 25 0 0 1 0 5h4.289a9.5 9.5 0 0 0 0-5zm-8.244 0A23 23 0 0 0 8.5 12c0 .867.046 1.705.132 2.5h6.736A23 23 0 0 0 15.5 12c0-.867-.046-1.705-.132-2.5zm-5.797 0a9.5 9.5 0 0 0 0 5h4.289a25 25 0 0 1 0-5zm6.246-6.542A9.53 9.53 0 0 0 3.383 8h3.942c.224-1.322.556-2.521.977-3.535.229-.552.49-1.06.779-1.507M12 2.5c-.324 0-.702.155-1.12.58-.418.428-.83 1.086-1.193 1.96-.347.836-.633 1.839-.838 2.96h6.302c-.205-1.121-.491-2.124-.838-2.96-.363-.874-.775-1.532-1.194-1.96-.417-.425-.795-.58-1.119-.58m2.918.458c.29.448.551.955.78 1.507.42 1.014.753 2.213.977 3.535h3.942a9.53 9.53 0 0 0-5.699-5.042"/></svg>
